assets/Capricorn/Flat/capricorn_flat.svg

<svg xmlns="http://www.w3.org/2000/svg" width="32" height="32" fill="none"><path fill="#8D65C5" d="M2 6a4 4 0 0 1 4-4h20a4 4 0 0 1 4 4v20a4 4 0 0 1-4 4H6a4 4 0 0 1-4-4V6Z"/><path fill="#fff" d="M21.5 14.25c-1.33 0-2.55.47-3.5 1.26v-5.26c0-2.76-2.24-5-5-5-1.49 0-2.82.65-3.74 1.69A4.01 4.01 0 0 0 6 5.25c-.55 0-1 .45-1 1s.45 1 1 1c1.1 0 2 .9 2 2v12c0 .55.45 1 1 1s1-.45 1-1v-11c0-1.65 1.35-3 3-3s3 1.35 3 3v11c0 1.93-1.57 3.5-3.5 3.5-.55 0-1 .45-1 1s.45 1 1 1c2.22 0 4.14-1.32 5.01-3.22 1 1.06 2.42 1.72 3.99 1.72 3.03 0 5.5-2.47 5.5-5.5s-2.47-5.5-5.5-5.5Zm0 9c-1.93 0-3.5-1.57-3.5-3.5s1.57-3.5 3.5-3.5 3.5 1.57 3.5 3.5-1.57 3.5-3.5 3.5Z"/></svg>

<svg width="32" height="32" viewBox="0 0 32 32" fill="none" xmlns="http://www.w3.org/2000/svg">
<path d="M2 6C2 3.79086 3.79086 2 6 2H26C28.2091 2 30 3.79086 30 6V26C30 28.2091 28.2091 30 26 30H6C3.79086 30 2 28.2091 2 26V6Z" fill="#8D65C5"/>
<path d="M21.5 14.25C20.17 14.25 18.95 14.72 18 15.51V10.25C18 7.49 15.76 5.25 13 5.25C11.51 5.25 10.18 5.9 9.26 6.94C8.53 5.92 7.34 5.25 6 5.25C5.45 5.25 5 5.7 5 6.25C5 6.8 5.45 7.25 6 7.25C7.1 7.25 8 8.15 8 9.25V10.25V11.25V21.25C8 21.8 8.45 22.25 9 22.25C9.55 22.25 10 21.8 10 21.25V11.25V10.25C10 8.6 11.35 7.25 13 7.25C14.65 7.25 16 8.6 16 10.25V17.25V19.75V21.25C16 23.18 14.43 24.75 12.5 24.75C11.95 24.75 11.5 25.2 11.5 25.75C11.5 26.3 11.95 26.75 12.5 26.75C14.72 26.75 16.64 25.43 17.51 23.53C18.51 24.59 19.93 25.25 21.5 25.25C24.53 25.25 27 22.78 27 19.75C27 16.72 24.53 14.25 21.5 14.25ZM21.5 23.25C19.57 23.25 18 21.68 18 19.75C18 17.82 19.57 16.25 21.5 16.25C23.43 16.25 25 17.82 25 19.75C25 21.68 23.43 23.25 21.5 23.25Z" fill="white"/>
</svg>
